src/24/panel/rocketchat-tray-dot.svg

<svg xmlns="http://www.w3.org/2000/svg" width="24" height="24" version="1.1">
 <defs>
  <style id="current-color-scheme" type="text/css">
   .ColorScheme-Text { color:#dfdfdf; } .ColorScheme-Highlight { color:#5294e2; }
  </style>
 </defs>
 <path style="fill:currentColor" class="ColorScheme-Text" d="M 4 4 C 4.625289 4.9191748 5.0814606 6.6621576 5.3378906 8.6816406 C 4.4662891 9.6649316 4.0008959 10.819243 4 12 C 4.00265 13.214174 4.4964048 14.399175 5.4160156 15.398438 C 5.1963716 17.38357 4.740364 19.093055 4 20 C 6.101032 20 8.0025374 19.106296 9.3808594 17.662109 C 10.222682 17.883472 11.107941 17.997678 12 18 C 16.418278 18 20 15.313708 20 12 C 20 8.686291 16.418278 6 12 6 C 11.107941 6.0023218 10.222682 6.1165275 9.3808594 6.3378906 C 8.0025374 4.8937041 6.101032 4 4 4 z M 12 8 A 6 4 0 0 1 12.652344 8.0253906 C 12.656844 8.0257316 12.661546 8.0250426 12.666016 8.0253906 A 6 4 0 0 1 12.722656 8.03125 A 6 4 0 0 1 17.898438 11.279297 C 17.901537 11.290467 17.907136 11.30131 17.910156 11.3125 A 6 4 0 0 1 18 12 A 6 4 0 0 1 17.916016 12.642578 C 17.909216 12.669978 17.904174 12.697299 17.896484 12.724609 A 6 4 0 0 1 17.625 13.375 A 6 4 0 0 1 13.324219 15.896484 C 13.320219 15.89712 13.31652 15.897737 13.3125 15.898438 A 6 4 0 0 1 13.28125 15.902344 A 6 4 0 0 1 12.798828 15.958984 C 12.720998 15.966284 12.643292 15.973316 12.564453 15.978516 A 6 4 0 0 1 12.015625 16 L 12.005859 16 A 6 4 0 0 1 12 16 A 6 4 0 0 1 9.4160156 15.603516 L 8.7480469 15.427734 L 7.9335938 16.28125 C 7.7192646 16.505821 7.4358454 16.623794 7.1933594 16.808594 C 7.2543494 16.405874 7.3577169 16.04013 7.4042969 15.619141 L 7.5039062 14.712891 L 7.2578125 14.445312 A 6 4 0 0 1 6.0605469 12.533203 C 6.0556069 12.509793 6.0530971 12.486271 6.0488281 12.462891 A 6 4 0 0 1 6 12 A 6 4 0 0 1 6.046875 11.523438 C 6.050385 11.504528 6.0565949 11.485727 6.0605469 11.466797 A 6 4 0 0 1 12 8 z M 9 11 C 8.4477153 11 8 11.447715 8 12 C 8 12.552285 8.4477153 13 9 13 C 9.5522847 13 10 12.552285 10 12 C 10 11.447715 9.5522847 11 9 11 z M 12 11 C 11.447715 11 11 11.447715 11 12 C 11 12.552285 11.447715 13 12 13 C 12.552285 13 13 12.552285 13 12 C 13 11.447715 12.552285 11 12 11 z M 15 11 C 14.447715 11 14 11.447715 14 12 C 14 12.552285 14.447715 13 15 13 C 15.552285 13 16 12.552285 16 12 C 16 11.447715 15.552285 11 15 11 z M 20 17 A 2 2 0 0 0 18 19 A 2 2 0 0 0 20 21 A 2 2 0 0 0 22 19 A 2 2 0 0 0 20 17 z"/>
</svg>

<svg xmlns="http://www.w3.org/2000/svg" width="24" height="24"><defs><style id="current-color-scheme" type="text/css"></style></defs><path d="M4 4c.625.92 1.081 2.662 1.338 4.682C4.466 9.665 4 10.819 4 12c.003 1.214.496 2.4 1.416 3.398C5.196 17.384 4.74 19.093 4 20c2.101 0 4.003-.894 5.38-2.338.843.221 1.728.336 2.62.338 4.418 0 8-2.686 8-6s-3.582-6-8-6c-.892.002-1.777.117-2.62.338C8.004 4.894 6.102 4 4 4zm8 4a6 4 0 0 1 .652.025h.014a6 4 0 0 1 .057.006 6 4 0 0 1 5.175 3.248c.004.011.01.022.012.034A6 4 0 0 1 18 12a6 4 0 0 1-.084.643c-.007.027-.012.054-.02.082a6 4 0 0 1-.271.65 6 4 0 0 1-4.3 2.521.774.774 0 0 0-.012.002 6 4 0 0 1-.032.004 6 4 0 0 1-.482.057 8.471 8.471 0 0 1-.235.02 6 4 0 0 1-.548.021h-.01A6 4 0 0 1 12 16a6 4 0 0 1-2.584-.396l-.668-.176-.814.853c-.215.225-.498.343-.74.528.06-.403.164-.769.21-1.19l.1-.906-.246-.268a6 4 0 0 1-1.197-1.912c-.005-.023-.008-.047-.012-.07A6 4 0 0 1 6 12a6 4 0 0 1 .047-.477c.003-.018.01-.037.014-.056A6 4 0 0 1 12 8zm-3 3a1 1 0 1 0 0 2 1 1 0 0 0 0-2zm3 0a1 1 0 1 0 0 2 1 1 0 0 0 0-2zm3 0a1 1 0 1 0 0 2 1 1 0 0 0 0-2zm5 6a2 2 0 0 0-2 2 2 2 0 0 0 2 2 2 2 0 0 0 2-2 2 2 0 0 0-2-2z" fill="currentColor" color="#dfdfdf"/></svg>
